tools/download-figma-icons/icons/outlined-medium/calculator.svg

<svg width="24" height="24" viewBox="0 0 24 24" fill="none" xmlns="http://www.w3.org/2000/svg">
<path fill-rule="evenodd" clip-rule="evenodd" d="M4.5 22.5H19.4738V1.5H4.5V22.5ZM19.6463 0H4.3275C3.5955 0 3 0.5955 3 1.3275V22.6717C3 23.4045 3.5955 24 4.3275 24H19.6463C20.3783 24 20.9738 23.4045 20.9738 22.6717V1.3275C20.9738 0.5955 20.3783 0 19.6463 0ZM7.47524 9H16.4992V4.5H7.47524V9ZM5.97524 10.5H17.9992V3H5.97524V10.5ZM8.98125 14.2515H5.98125V12.7515H8.98125V14.2515ZM10.4865 14.2515H13.4865V12.7515H10.4865V14.2515ZM17.9865 14.2515H14.9865V12.7515H17.9865V14.2515ZM6 17.2515H8.98125V15.7515H6V17.2515ZM13.4865 17.2515H10.4865V15.7515H13.4865V17.2515ZM14.9865 17.2515H17.9865V15.7515H14.9865V17.2515ZM8.98125 20.2305H6V18.7305H8.98125V20.2305ZM10.4865 20.2515H13.4865V18.7515H10.4865V20.2515ZM17.9865 20.2515H14.9865V18.7515H17.9865V20.2515Z" fill="black"/>
</svg>

<svg xmlns="http://www.w3.org/2000/svg" width="24" height="24" fill="none" viewBox="0 0 24 24"><path fill="currentColor" fill-rule="evenodd" d="M4.5 22.5h14.974v-21H4.5zM19.646 0H4.328A1.33 1.33 0 0 0 3 1.328v21.344A1.33 1.33 0 0 0 4.327 24h15.32a1.33 1.33 0 0 0 1.327-1.328V1.328A1.33 1.33 0 0 0 19.646 0M7.476 9h9.023V4.5H7.475zm-1.5 1.5h12.023V3H5.975zm3.005 3.752h-3v-1.5h3zm1.505 0h3v-1.5h-3zm7.5 0h-3v-1.5h3zM6 17.252h2.981v-1.5H6zm7.486 0h-3v-1.5h3zm1.5 0h3v-1.5h-3zM8.982 20.23H6v-1.5h2.981zm1.505.02h3v-1.5h-3zm7.5 0h-3v-1.5h3z" clip-rule="evenodd"/></svg>
